icons/1_Primary/Bitpanda.svg

<svg xmlns="http://www.w3.org/2000/svg" viewBox="0 0 1024 1024">
   <circle cx="512" cy="512" r="512" style="fill:#0c0c0c"/>
   <path d="m585.76 351-8.65 2.73v32.57a38 38 0 0 1-26.16 36l-88.94 28v48.27l116.89-36.86c27.73-8.63 44.28-32.57 44.28-64v-21.6c0-14.75-16.9-31.64-37.42-25.15m-186-13.77L565 285.14c18.05-5.68 32.37-5.37 41-4.36l-20.72-15.13c-9.55-6.92-38.68-23.11-74.59-11.67l-157 49.5zm251.75 143s29.18-26.49 29.18-83.42v-24.09c0-37.49-43.17-98.39-112.28-76.56l-163.94 51.7v304l46-14.51v-74.72l148-46.65C626.05 507.33 649 529 649 553v29.63c0 30.16-26.64 72.94-68.41 86.06l-226.86 71.55 46 33.76 204.41-64.44c43.15-13.73 90.91-50.75 90.91-129.35v-30.26c0-47.53-43.57-69.76-43.57-69.76m-69.16-7.44-131.81 41.57V381.57L582.26 340c27.51-8.61 52.4 13.37 52.4 36.1v21.61c0 37.81-20.69 65.08-52.31 75m55.18 109.9v-29.56c0-16.72-16.16-32.28-35.63-26.13l-10.41 3.28v41a45.86 45.86 0 0 1-32.2 43.91L393 667.53v-321l-46-33.76v417.55l230.25-72.59c36.11-11.38 60.36-48 60.36-75.08" style="fill:#fff"/>
</svg>

<svg width="1024" height="1024" viewBox="0 0 1024 1024" fill="none" xmlns="http://www.w3.org/2000/svg">
<g clip-path="url(#clip0_2_1644)">
<path d="M512 1024C794.77 1024 1024 794.77 1024 512C1024 229.23 794.77 0 512 0C229.23 0 0 229.23 0 512C0 794.77 229.23 1024 512 1024Z" fill="#56595B"/>
<path d="M585.76 351L577.11 353.73V386.3C577.087 394.289 574.547 402.067 569.851 408.53C565.155 414.993 558.541 419.811 550.95 422.3L462.01 450.3V498.57L578.9 461.71C606.63 453.08 623.18 429.14 623.18 397.71V376.11C623.18 361.36 606.28 344.47 585.76 350.96M399.76 337.19L565 285.14C583.05 279.46 597.37 279.77 606 280.78L585.28 265.65C575.73 258.73 546.6 242.54 510.69 253.98L353.69 303.48L399.76 337.19ZM651.51 480.19C651.51 480.19 680.69 453.7 680.69 396.77V372.68C680.69 335.19 637.52 274.29 568.41 296.12L404.47 347.82V651.82L450.47 637.31V562.59L598.47 515.94C626.05 507.33 649 529 649 553V582.63C649 612.79 622.36 655.57 580.59 668.69L353.73 740.24L399.73 774L604.14 709.56C647.29 695.83 695.05 658.81 695.05 580.21V549.95C695.05 502.42 651.48 480.19 651.48 480.19M582.32 472.75L450.51 514.32V381.57L582.26 340C609.77 331.39 634.66 353.37 634.66 376.1V397.71C634.66 435.52 613.97 462.79 582.35 472.71M637.53 582.61V553.05C637.53 536.33 621.37 520.77 601.9 526.92L591.49 530.2V571.2C591.518 580.999 588.407 590.549 582.612 598.451C576.818 606.353 568.644 612.191 559.29 615.11L393 667.53V346.53L347 312.77V730.32L577.25 657.73C613.36 646.35 637.61 609.73 637.61 582.65" fill="white"/>
</g>
<defs>
<clipPath id="clip0_2_1644">
<rect width="1024" height="1024" fill="white"/>
</clipPath>
</defs>
</svg>
